icons/breezeDark/toolpath/pock_rast_climb.svg

<svg height="75" viewBox="0 0 19.84375 19.843751" width="75" xmlns="http://www.w3.org/2000/svg"><g transform="translate(0 -277.15623)"><path d="m15 15v45h45v-45zm1 1h43v43h-43z" fill="#c0c0c0" stroke-width=".989072" transform="matrix(.26458334 0 0 .26458334 0 277.15623)"/><path d="m6.3500002 283.77081v.26459h6.8791668v1.85208h-6.8791668v2.38125h6.8791668v1.85208h-6.8791668v.26459h7.1437498v-2.38125h-6.8791668v-1.85209h6.8791668v-2.38125z" fill="#da4453"/><path d="m5.820834 283.24164h4.233334v.264583h-4.233334z" fill="#da4453"/><circle cx="-9.921818" cy="283.3739" fill="#c0c0c0" r="1.984375" stroke-width=".264583" transform="scale(-1 1)"/><circle cx="-9.921815" cy="283.3739" fill="#3daee9" r="1.719792" stroke-width=".264583" transform="scale(-1 1)"/><path d="m47 19-8.488281 3.394531c-.27613-.253251-.637041-.393993-1.011719-.394531-.828427 0-1.5.671573-1.5 1.5s.671573 1.5 1.5 1.5c.374678-.000538.735589-.14128 1.011719-.394531l8.488281 3.394531v-1l-7.5-3h12.5v27h-29v-28h-1v29h31v-29h-13.5l7.5-3zm-15 4v1h3v-1z" fill="#da4453" transform="matrix(.26458334 0 0 .26458334 0 277.15623)"/></g></svg>

<?xml version="1.0" encoding="UTF-8" standalone="no"?>
<svg
   xmlns:dc="http://purl.org/dc/elements/1.1/"
   xmlns:cc="http://creativecommons.org/ns#"
   xmlns:rdf="http://www.w3.org/1999/02/22-rdf-syntax-ns#"
   xmlns:svg="http://www.w3.org/2000/svg"
   xmlns="http://www.w3.org/2000/svg"
   xmlns:sodipodi="http://sodipodi.sourceforge.net/DTD/sodipodi-0.dtd"
   xmlns:inkscape="http://www.inkscape.org/namespaces/inkscape"
   sodipodi:docname="pock_rast_climb.svg"
   inkscape:version="1.0beta1 (fe3e306, 2019-09-17)"
   id="svg8"
   version="1.1"
   viewBox="0 0 19.84375 19.843751"
   height="75"
   width="75">
  <defs
     id="defs2" />
  <sodipodi:namedview
     inkscape:document-rotation="0"
     inkscape:snap-bbox="true"
     inkscape:snap-object-midpoints="false"
     inkscape:snap-center="false"
     inkscape:window-maximized="0"
     inkscape:window-y="0"
     inkscape:window-x="834"
     inkscape:window-height="1042"
     inkscape:window-width="1070"
     showguides="false"
     units="px"
     showgrid="true"
     inkscape:current-layer="layer1"
     inkscape:document-units="px"
     inkscape:cy="40.609851"
     inkscape:cx="33.543743"
     inkscape:zoom="11.313709"
     inkscape:pageshadow="2"
     inkscape:pageopacity="0.0"
     borderopacity="1.0"
     bordercolor="#666666"
     pagecolor="#ffffff"
     id="base">
    <inkscape:grid
       id="grid10"
       type="xygrid" />
  </sodipodi:namedview>
  <metadata
     id="metadata5">
    <rdf:RDF>
      <cc:Work
         rdf:about="">
        <dc:format>image/svg+xml</dc:format>
        <dc:type
           rdf:resource="http://purl.org/dc/dcmitype/StillImage" />
        <dc:title />
      </cc:Work>
    </rdf:RDF>
  </metadata>
  <g
     transform="translate(0,-277.15623)"
     id="layer1"
     inkscape:groupmode="layer"
     inkscape:label="Layer 1">
    <path
       transform="matrix(0.26458334,0,0,0.26458334,0,277.15623)"
       d="M 15 15 L 15 60 L 60 60 L 60 15 L 15 15 z M 16 16 L 59 16 L 59 59 L 16 59 L 16 16 z "
       style="stroke-width:0.989072;fill:#c0c0c0;fill-opacity:1"
       id="rect14" />
    <path
       sodipodi:nodetypes="ccccccccccccccccc"
       inkscape:connector-curvature="0"
       id="rect4585-9"
       d="m 6.3500002,283.77081 v 0.26459 h 6.8791668 v 1.85208 H 6.3500002 v 2.38125 h 6.8791668 v 1.85208 H 6.3500002 v 0.26459 H 13.49375 v -2.38125 H 6.6145832 v -1.85209 H 13.49375 v -2.38125 z"
       style="fill:#da4453;fill-opacity:1;stroke:none;stroke-width:5.57354212;stroke-miterlimit:4;stroke-dasharray:none;stroke-opacity:1" />
    <rect
       y="283.24164"
       x="5.8208337"
       height="0.26458335"
       width="4.2333336"
       id="rect4727"
       style="fill:#da4453;fill-opacity:1;stroke:none;stroke-width:3.09158969;stroke-miterlimit:4;stroke-dasharray:none;stroke-opacity:1" />
    <circle
       transform="scale(-1,1)"
       r="1.984375"
       cy="283.3739"
       cx="-9.9218178"
       id="path22"
       style="fill:#c0c0c0;stroke-width:0.26458335;fill-opacity:1" />
    <circle
       transform="scale(-1,1)"
       r="1.7197917"
       cy="283.3739"
       cx="-9.9218149"
       id="path24"
       style="fill:#3daee9;stroke-width:0.26458335;fill-opacity:1" />
    <path
       transform="matrix(0.26458334,0,0,0.26458334,0,277.15623)"
       d="M 47 19 L 38.511719 22.394531 C 38.235589 22.14128 37.874678 22.000538 37.5 22 C 36.671573 22 36 22.671573 36 23.5 C 36 24.328427 36.671573 25 37.5 25 C 37.874678 24.999462 38.235589 24.85872 38.511719 24.605469 L 47 28 L 47 27 L 39.5 24 L 52 24 L 52 51 L 23 51 L 23 23 L 22 23 L 22 52 L 53 52 L 53 23 L 39.5 23 L 47 20 L 47 19 z M 32 23 L 32 24 L 35 24 L 35 23 L 32 23 z "
       style="fill:#da4453;fill-opacity:1;stroke:none;stroke-width:16;stroke-miterlimit:4;stroke-dasharray:none;stroke-opacity:1"
       id="rect4559" />
  </g>
</svg>
